X:1
T:Forest Glen, CM
T:Forest Glen, CM
T:Joshua F. Drake, 2006
T:Public Domain Courtesy of the Cyber Hymnal™
C:Joshua F. Drake, 2006
Z:Public Domain
Z:Courtesy of the Cyber Hymnal™
%%score ( 1 2 ) ( 3 4 )
L:1/8
M:3/4
K:Eb
V:1 treble 
V:2 treble 
V:3 bass 
V:4 bass 
V:1
 [EG]2 | [CE]4 [DF]2 | ([B,G]>[DF] [B,E]2) [EG]2 | [GB]4 [Ac]2 | [GB]4 [EG]2 | [EB]4 [FA]2 | %6
 (G>F [CE]2) [B,D]2 | [B,E]4 [FB]2 | [Ge]4 [Fd]2 | (c>B A2) [Ec]2 | [EB]4 [EG]2 | %11
 ([EG]2 [DF]2) [DB]2 | [CE]4 [EA]2 | (G>F [B,E]2) [B,D]2 | [B,E]6 |] %15
V:2
 x2 | x6 | x6 | x6 | x6 | x6 | E2 x4 | x6 | x6 | E4 A2 | x6 | x6 | x6 | E2 x4 | x6 |] %15
V:3
 [E,B,]2 | G,4 [B,,A,]2 | ([E,G,]2 [E,G,]2) [E,B,]2 | [E,E]4 [A,,E]2 | [E,E]4 [G,B,]2 | %5
 [E,G,]4 [D,B,]2 | (C2 G,2) [B,,A,]2 | [E,G,]4 [D,B,]2 | [E,B,]4 [B,,B,]2 | (G,2 A,2) [A,,A,]2 | %10
 [E,G,]4 [E,B,]2 | ([E,B,]2 [B,,B,]2) [D,F,]2 | [E,G,]4 [C,A,]2 | B,2 [B,,G,]2 [B,,A,]2 | %14
 [E,G,]6 |] %15
V:4
 x2 | G,4 x2 | x6 | x6 | x6 | x6 | E,4 x2 | x6 | x6 | C,4 x2 | x6 | x6 | x6 | G,,>A,, x4 | x6 |] %15

